packages/opendesign/src/icons/svgs/fill/delete.svg

<?xml version="1.0" encoding="UTF-8"?>
<svg width="24px" height="24px" viewBox="0 0 24 24" version="1.1" xmlns="http://www.w3.org/2000/svg" xmlns:xlink="http://www.w3.org/1999/xlink">
    <title>delete</title>
    <g id="delete" stroke="none" stroke-width="1" fill="none" fill-rule="evenodd">
        <path d="M20.1916203,4.34002415 C20.6058339,4.34002415 20.9416203,4.67581059 20.9416203,5.09002415 C20.9416203,5.45821399 20.6763076,5.76443671 20.3264338,5.82794065 L20.1916203,5.84002415 L6.36446461,5.83995554 L6.36450073,20.0577004 C6.36450073,20.2707245 6.51252087,20.4491767 6.71131986,20.4958156 L6.81450073,20.5077004 L17.5336228,20.5077004 C17.746647,20.5077004 17.9250991,20.3596803 17.971738,20.1608813 L17.9836228,20.0577004 L17.9836228,8.34574362 C17.9836228,7.93153006 18.3194093,7.59574362 18.7336228,7.59574362 C19.1018127,7.59574362 19.4080354,7.86105636 19.4715393,8.21093017 L19.4836228,8.34574362 L19.4836228,20.0577004 C19.4836228,21.067346 18.7162984,21.8977733 17.732999,21.9976328 L17.5336228,22.0077004 L6.81450073,22.0077004 C5.80485517,22.0077004 4.97442784,21.2403759 4.87456836,20.2570766 L4.86450073,20.0577004 L4.86446461,5.83995554 L3.85846461,5.84002415 C3.44425105,5.84002415 3.10846461,5.50423771 3.10846461,5.09002415 C3.10846461,4.72183432 3.37377735,4.4156116 3.72365116,4.35210766 L3.85846461,4.34002415 L20.1916203,4.34002415 Z M10.0968729,9.41943542 C10.4650627,9.41943542 10.7712854,9.68474816 10.8347894,10.034622 L10.8468729,10.1694354 L10.8468729,16.6530755 C10.8468729,17.0672891 10.5110865,17.4030755 10.0968729,17.4030755 C9.72868306,17.4030755 9.42246034,17.1377628 9.3589564,16.787889 L9.34687289,16.6530755 L9.34687289,10.1694354 C9.34687289,9.75522185 9.68265933,9.41943542 10.0968729,9.41943542 Z M14.5968729,9.41943542 C14.9650627,9.41943542 15.2712854,9.68474816 15.3347894,10.034622 L15.3468729,10.1694354 L15.3468729,16.6530755 C15.3468729,17.0672891 15.0110865,17.4030755 14.5968729,17.4030755 C14.2286831,17.4030755 13.9224603,17.1377628 13.8589564,16.787889 L13.8468729,16.6530755 L13.8468729,10.1694354 C13.8468729,9.75522185 14.1826593,9.41943542 14.5968729,9.41943542 Z M14.2538552,1.93595554 C14.6680688,1.93595554 15.0038552,2.27174198 15.0038552,2.68595554 C15.0038552,3.05414537 14.7385425,3.36036809 14.3886686,3.42387204 L14.2538552,3.43595554 L9.71901304,3.43595554 C9.30479948,3.43595554 8.96901304,3.1001691 8.96901304,2.68595554 C8.96901304,2.31776571 9.23432578,2.01154298 9.58419959,1.94803904 L9.71901304,1.93595554 L14.2538552,1.93595554 Z" id="path1" fill="#000000" fill-rule="nonzero"></path>
    </g>
</svg>

<!-- Generated by IcoMoon.io -->
<svg version="1.1" xmlns="http://www.w3.org/2000/svg" width="24" height="24" viewBox="0 0 24 24">
<title>delete</title>
<path d="M20.192 4.34c0.414 0 0.75 0.336 0.75 0.75 0 0.368-0.265 0.674-0.615 0.738l-0.135 0.012-13.827-0 0 14.218c0 0.213 0.148 0.391 0.347 0.438l0.103 0.012h10.719c0.213 0 0.391-0.148 0.438-0.347l0.012-0.103v-11.712c0-0.414 0.336-0.75 0.75-0.75 0.368 0 0.674 0.265 0.738 0.615l0.012 0.135v11.712c0 1.010-0.767 1.84-1.751 1.94l-0.199 0.010h-10.719c-1.010 0-1.84-0.767-1.94-1.751l-0.010-0.199-0-14.218-1.006 0c-0.414 0-0.75-0.336-0.75-0.75 0-0.368 0.265-0.674 0.615-0.738l0.135-0.012h16.333zM10.097 9.419c0.368 0 0.674 0.265 0.738 0.615l0.012 0.135v6.484c0 0.414-0.336 0.75-0.75 0.75-0.368 0-0.674-0.265-0.738-0.615l-0.012-0.135v-6.484c0-0.414 0.336-0.75 0.75-0.75zM14.597 9.419c0.368 0 0.674 0.265 0.738 0.615l0.012 0.135v6.484c0 0.414-0.336 0.75-0.75 0.75-0.368 0-0.674-0.265-0.738-0.615l-0.012-0.135v-6.484c0-0.414 0.336-0.75 0.75-0.75zM14.254 1.936c0.414 0 0.75 0.336 0.75 0.75 0 0.368-0.265 0.674-0.615 0.738l-0.135 0.012h-4.535c-0.414 0-0.75-0.336-0.75-0.75 0-0.368 0.265-0.674 0.615-0.738l0.135-0.012h4.535z"></path>
</svg>
